offline.svg

<svg xmlns="http://www.w3.org/2000/svg" viewBox="0 0 22 22">
  <defs id="defs3051">
    <style type="text/css" id="current-color-scheme">
      .ColorScheme-Text {
        color:#4d4d4d;
      }
      </style>
  </defs>
  <g
     transform="translate(-421.71429,-525.79074)">
    <path
       style="opacity:1;fill:currentColor;fill-opacity:1;stroke:none"
       d="M 11 4 A 6 6 0 0 0 5 10 A 6 6 0 0 0 5.0039062 10.128906 A 4 4 0 0 0 2 14 A 4 4 0 0 0 6 18 L 15 18 A 5 5 0 0 0 20 13 A 5 5 0 0 0 16.757812 8.3242188 A 6 6 0 0 0 11 4 z M 11 5 A 5 5 0 0 1 15.919922 9.1113281 A 4.0000019 4.0000019 0 0 1 19 13 A 4.0000019 4.0000019 0 0 1 15 17 L 6 17 A 2.9999979 2.9999979 0 0 1 3 14 A 2.9999979 2.9999979 0 0 1 6 11 A 2.9999979 2.9999979 0 0 1 6.1074219 11.005859 A 5 5 0 0 1 6 10 A 5 5 0 0 1 11 5 z "
       transform="translate(421.71429,525.79074)"
       class="ColorScheme-Text"
       id="path4196" />
    <path
       style="opacity:1;fill:#bdc3c7;fill-opacity:1;stroke:none"
       d="m 442.71429,540.29071 a 4.5,4.5 0 0 1 -4.5,4.5 4.5,4.5 0 0 1 -4.5,-4.5 4.5,4.5 0 0 1 4.5,-4.5 4.5,4.5 0 0 1 4.5,4.5 z"
       id="path4306" />
    <path
       style="opacity:1;fill:#ffffff;fill-opacity:1;stroke-linecap:round"
       d="M 14 14 L 14 15 L 15 15 L 15 14 L 14 14 z M 16 14 L 16 15 L 17 15 L 17 14 L 16 14 z M 18 14 L 18 15 L 19 15 L 19 14 L 18 14 z "
       transform="translate(421.71429,525.79074)"
       id="rect4521" />
  </g>
</svg>

<svg xmlns="http://www.w3.org/2000/svg" viewBox="0 0 22 22"><path d="M11 4a6 6 0 0 0-6 6 6 6 0 0 0 .004.129A4 4 0 0 0 2 14a4 4 0 0 0 4 4h9a5 5 0 0 0 5-5 5 5 0 0 0-3.242-4.676A6 6 0 0 0 11 4zm0 1a5 5 0 0 1 4.92 4.111A4 4 0 0 1 19 13a4 4 0 0 1-4 4H6a3 3 0 0 1-3-3 3 3 0 0 1 3-3 3 3 0 0 1 .107.006A5 5 0 0 1 6 10a5 5 0 0 1 5-5z" fill="currentColor" color="#4d4d4d"/><path d="M21 14.5a4.5 4.5 0 0 1-4.5 4.5 4.5 4.5 0 0 1-4.5-4.5 4.5 4.5 0 0 1 4.5-4.5 4.5 4.5 0 0 1 4.5 4.5z" fill="#bdc3c7"/><path d="M14 14v1h1v-1h-1zm2 0v1h1v-1h-1zm2 0v1h1v-1h-1z" fill="#fff"/></svg>
